X: 125
T:Speed the Plough
R:Reel
C:John Morehead
N:From around 1800
B:Skye, p.5.
B:Caledonian Companion, p.37.
B:Harp and Claymore, p.96 (
Z:John Chambers <jc@eddie.mit.edu> http://eddie.mit.edu/~jc/music/
M:C
L:1/8
Q:1/2=112
K:A
E|:~A2Ac efec|eaec efec|dfdB cecA|
dcBA GABc||~A2Ac efec|eaec efec|decd BcAB|
FAGB A3::g|a2 (3bag aAcd|aAgA fAeA|dfdB cecA|
dcBA GABc|| (3cBA eA fAeA|fgaf ecAc|decd BcAB|
FAGB A3:|
